X:1
T:Chi d'Amor vive in tormento
T:Giacomo Carissimi
T:Source : Ariette di Musica a uno e due voci---Bracciano---A.Frei---1646. Editor : André Vierendeels (29/12/16).
T:Notes : Original clefs : C1, F4 Music empiled by Florido Silvestri Barbarano Figures in BC are notated in original print 
T:Chi d'Amor vive in tormento
T:©
T:©
T:©
T:©
T:©
T:©
T:©
C:Giacomo Carissimi
Z:©
%%score 1 { 2 | 3 }
L:1/8
Q:1/4=114
M:6/4
K:C
V:1 treble nm="Soprano" snm="S"
V:2 treble nm="MusicXML Part"
V:3 bass 
V:1
 z2 A2 B2 c2 cd ef | g2 f3 f f2 e4 | z2 e2 e2 dc dA dc | gf gd gf e3 d c2 | B2 A4 G2 d2 d2 | %5
w: Chi d'A- mor vi- * * *|ve in tor- men- to|sen- za mai _ _ _ _ _|_ _ _ _ _ _ _ can- giar|de- si- re, spe- ri'un|
w: Fia di- man la _ _ _|_ sor- te'a- mi- ca|s'hog- gi è _ _ _ _ _|ri- * * * * * gi- * da'e-|se ve ra dop- po|
 d3 f ef g2 f2 e2 | fg ad fd AB cA cA | de fd fd a2 e4 | z2 A2 A2 B3 ^c de | ^c2 A2 e2 g4 g2- | %10
w: di lie- * * * to'e con-|ten- * * * * * * * * * * *|* * * * * * * to,|di- dar- si- * * *|* ne al suo mar-|
w: lun- g'as- * * * spra fa-|ti- * * * * * * * * * * *|* * * * * * * ca,|dop- po lun- g'as- * *|* spra fa- ti- *|
 g2 f3 e f3 ^c de | d3 A _Bc BA Bc de | f2 e4 d2 A2 A2 | A3 c Bc d2 c2 B2 | cd eA cA EF GE GE | %15
w: * ti- * * * * *||* * re spe- ri'un|di lie- * * * to'e con-|ten- * * * * * * * * * * *|
w: ||* * ca, pa- ga|spet- to'A- * * * mor la|se- * * * * * * * * * * *|
 AB cA cA e2 B4 | z2 E2 E2 ^F3 ^G AB | ^G2 E2 B2 d4 d2 | d2 c3 B c3 ^G AB | A3 E FG FE FG AB | %20
w: * * * * * * * to|di dar si _ _ _|_ ne al suo mar-|ti- * * * * * *||
w: * * * * * * * ra,|chi non pu- * * *|* * gn'in- dar- no'al|cri- * * * * * *||
 c2 B4 A6 :: z2 e2 e2 e4 ^f2 | d4 e2 ^f4 f2 | z2 d2 d2 d2 d2 e2 | c4 d2 B4 B2 | z2 B2 B2 B4 ^c2 | %26
w: * * re.|Se non è di|sel- ce'un Al- ma|à pie- ta- te al|fin si de- sta|non fu mai si|
w: * * ne.-|Cin- ger puo Lau-|r'o Go- ro- na|so- lo'il pre- mi- o'à|quei si do- na,|che del cor- so|
 A4 B2 ^cd ec Ac | ^fg af df Bc de fg | ab g4 ^f2 d2 A2 | B2 AB AB G2 AB AG | ^F2 F2 G2 Ad cd Ad | %31
w: gran tem- pe- * * * * *||* * * sta, che non|tor- * * * * * * * * *|* * n'il ma- * * * * *|
w: giun- ge'al fi- * * * * *||* * * ne non si|stan- * * * * * * * * *|* * chi Al- * * * * *|
 Bg ^fg dg e4 e2- | e2 e4 d6 | z2 A2 B2 c2 c2 d2 | e4 ^G2 G2 A2 B2 | B2 Bc dc ^G2 A3 A | %36
w: * * * * * * * re'in|_ cal- ma.|Po- ca stil- la un|sas- so fran- * ge,|non è _ _ _ sem- pre'in- fe-|
w: * * * * * * ma fe-|* de- le,|che bel vol- * to,|che bel vol- * to,|non su _ _ _ sem- pre cru-|
 A2 ^G3 A A2 ^fg ag | ^d2 e3 e e2 d3 e | e2 ^d3 e e2 Bc Bc | d2 cB cd c2 B4 | A2 ef gf ^c2 d3 d | %41
w: li- * ce non è _ _ _|sem- pre'in- fe- li- ce, in|fe- li- ce, Al- * * * *|* ma _ che _ pian- ge,|non è _ _ _ sem- pre'in- fe-|
w: de- * le, non su _ _ _|sem- pre cru- de- le, cru-|de- * le, sem- * * * *|* pre _ cru- * de- le,|non su _ _ _ sem- pre cru-|
 d2 ^c3 d d3 d cB | AG AF GA ^G2 Eg fe | fe fd ef c2 dc BA | c2 B4 A6 :| %45
w: li- * * ce, Al- * *|* * * * * * * ma, Al- * *|* * * * * * * ma _ che _|pian- * ge.|
w: de- * * le, non _ _|_ _ _ _ _ _ _ su sem- * *|* * * * * * * * * pre _|cru- de- le.|
V:2
 z12 | z12 | z12 | z12 | z12 | z12 | z12 | z12 | z12 | z12 | z12 | z12 | z12 | z12 | z12 | z12 | %16
 z12 | z12 | z12 | z12 | z12 :: z12 | z12 | z12 | z12 | z12 | z12 | z12 | z12 | z12 | z12 | z12 | %32
 z12 | z12 | z12 | z12 | z12 |"^4" z12 | z12 | z12 | z12 | z12 | z12 | z12 | z12 :| %45
V:3
"^BC" A,4 ^G,2 A,2 A,,4 | B,,4 B,,2 C,2 CD CB, | A,2 E,4 ^F,2 D,4 | E,2 B,,4 C,3 B,, A,,2 | %4
"^4 3" G,,2 D,4 G,,4 G,2 | ^F,2 =F,4 E,2 D,2 ^C,2 | D,4 D2 ^C2 =C4 |"^#" B,2 _B,4 A,3 B, A,G, | %8
 F,4 ^F,2 G,2 ^G,4 | A,4 A,,2 _B,,2 =B,,4 | C,2 ^C,4 D,2 A,,4 | _B,,2 F,,4 G,,4 B,,2 | %12
"^#" A,,6 D,4 D2 |"^5 4" ^C2 =C4 B,2 A,2 ^G,2 | A,4 A,2 ^G,2 =G,4 |"^#" ^F,2 =F,4 E,3 F, E,D, | %16
 C,2 ^C,4 D,2 ^D,4 | E,4 E,2 F,2 ^F,4 | G,2 ^G,4 A,2 E,4 | F,2 C,4 D,4 F,2 |"^4 3" E,6 A,,6 :: %21
"^#" A,4 ^G,2 A,2 =G,2 ^F,2 |"^6" G,2 ^F,2 E,2 D,3 C, B,,A,, | G,,2 G,2 ^F,2 G,2 =F,2 E,2 | %24
"^#" F,2 E,2 D,2 E,3 D, E,^F, |"^#""^#" E,4 ^D,2 E,2 =D,2 ^C,2 | D,2 ^C,2 B,,2 A,,4 C,2 | %27
 D,4 ^F,2 G,4 F,2- |"^7 6" F,2 E,4 D,4 ^F,2 | G,2 ^F,4 E,2 ^C,4 | D,4 E,2 ^F,6 |"^#" G,6 A,4 G,2- | %32
"^#" G,2 A,4 D,4 E,2 | ^F,4 ^G,2 A,2 A,,2 B,,2 |"^7 6""^7""^#""^#" C,2 D,2 E,2 F,2 ^F,4 | %35
"^#" E,4 D,2 D,2 ^C,2 =C,2 |"^7 6" B,,6 A,,6 |"^2" A,,4 ^G,,4 =G,,4 |"^#""^7 6" ^F,,6 E,,6 | %39
 D,,6 E,,6 |"^#" A,,2 A,2 G,2 G,2 ^F,2 =F,2 |"^7 6""^#" E,6 D,2 B,,4 | A,,6 E,2 C,4 | %43
"^6" D,6 E,2 F,4 |"^4 3" E,6 A,,6 :| %45

